static/cards/FrenchDeck/default/card_hearts_03.svg

<svg width="219" height="304" viewBox="0 0 219 304" fill="none" xmlns="http://www.w3.org/2000/svg">
<g filter="url(#filter0_d_18_669)">
<g clip-path="url(#clip0_18_669)">
<rect x="8" y="4" width="203" height="288" rx="10" fill="white"/>
<path d="M16.311 38.3945C16.311 37.4937 16.9316 36.853 17.8125 36.853C18.5132 36.853 18.9536 37.2134 19.4741 38.2344C20.5151 40.3765 22.5972 41.5776 25.3198 41.5776C28.9033 41.5776 31.1855 39.6157 31.1855 36.5527C31.1855 33.4897 28.8433 31.4277 25.3599 31.4277H22.8574C21.9365 31.4277 21.2559 30.7671 21.2559 29.9062C21.2559 29.0254 21.8965 28.4048 22.8574 28.4048H25.2197C28.1426 28.4048 30.2646 26.4229 30.2646 23.6802C30.2646 20.9375 28.2026 19.0957 25.1396 19.0957C22.7573 19.0957 20.9556 20.2769 20.1548 22.3389C19.7544 23.4399 19.2539 23.8604 18.4731 23.8604C17.5522 23.8604 16.9517 23.1997 16.9517 22.1987C16.9517 19.0957 20.2949 16.0928 25.2197 16.0928C30.2246 16.0928 33.7881 19.0757 33.7881 23.2397C33.7881 26.2627 31.5259 29.1455 28.7432 29.626V29.8262C32.1265 30.2065 34.709 33.1694 34.709 36.6128C34.709 41.2974 30.8252 44.5806 25.2598 44.5806C20.0947 44.5806 16.311 41.4575 16.311 38.3945Z" fill="#BC1E24"/>
<path d="M21.7347 53.0006C24.4518 53.042 25.5069 55.3984 25.8537 56.5094C25.8888 56.6218 26.1122 56.6217 26.1472 56.5093C26.4938 55.3983 27.5482 53.042 30.2653 53.0006C33.8229 52.9462 36.4995 56.9292 34.0587 60.9289C31.8832 64.4939 26.0821 71 26 71C25.9165 71 20.1169 64.4943 17.9413 60.9289C15.5005 56.9291 18.177 52.9462 21.7347 53.0006Z" fill="#BC1E24"/>
<path d="M202.689 257.605C202.689 258.506 202.068 259.147 201.188 259.147C200.487 259.147 200.046 258.787 199.526 257.766C198.485 255.624 196.403 254.422 193.68 254.422C190.097 254.422 187.814 256.384 187.814 259.447C187.814 262.51 190.157 264.572 193.64 264.572L196.143 264.572C197.063 264.572 197.744 265.233 197.744 266.094C197.744 266.975 197.104 267.595 196.143 267.595L193.78 267.595C190.857 267.595 188.735 269.577 188.735 272.32C188.735 275.062 190.797 276.904 193.86 276.904C196.243 276.904 198.044 275.723 198.845 273.661C199.246 272.56 199.746 272.14 200.527 272.14C201.448 272.14 202.048 272.8 202.048 273.801C202.048 276.904 198.705 279.907 193.78 279.907C188.775 279.907 185.212 276.924 185.212 272.76C185.212 269.737 187.474 266.854 190.257 266.374L190.257 266.174C186.874 265.793 184.291 262.831 184.291 259.387C184.291 254.703 188.175 251.419 193.74 251.419C198.905 251.419 202.689 254.542 202.689 257.605Z" fill="#BC1E24"/>
<path d="M197.265 242.999C194.548 242.958 193.493 240.602 193.146 239.491C193.111 239.378 192.888 239.378 192.853 239.491C192.506 240.602 191.452 242.958 188.735 242.999C185.177 243.054 182.501 239.071 184.941 235.071C187.117 231.506 192.918 225 193 225C193.083 225 198.883 231.506 201.059 235.071C203.499 239.071 200.823 243.054 197.265 242.999Z" fill="#BC1E24"/>
<path d="M99.2206 30.2514C105.769 30.3516 108.312 36.0461 109.148 38.731C109.232 39.0026 109.77 39.0025 109.855 38.7309C110.69 36.0459 113.231 30.3516 119.779 30.2514C128.353 30.1199 134.804 39.7455 128.922 49.4115C123.679 58.0269 109.698 73.75 109.5 73.75C109.299 73.7499 95.3218 58.0278 90.0785 49.4115C84.1963 39.7454 90.6467 30.1199 99.2206 30.2514Z" fill="#BC1E24"/>
<path d="M99.2206 126.251C105.769 126.352 108.312 132.046 109.148 134.731C109.232 135.003 109.77 135.003 109.855 134.731C110.69 132.046 113.231 126.352 119.779 126.251C128.353 126.12 134.804 135.745 128.922 145.411C123.679 154.027 109.698 169.75 109.5 169.75C109.299 169.75 95.3218 154.028 90.0785 145.411C84.1963 135.745 90.6467 126.12 99.2206 126.251Z" fill="#BC1E24"/>
<path d="M99.2206 265.749C105.769 265.648 108.312 259.954 109.148 257.269C109.232 256.997 109.77 256.997 109.855 257.269C110.69 259.954 113.231 265.648 119.779 265.749C128.353 265.88 134.804 256.255 128.922 246.589C123.679 237.973 109.698 222.25 109.5 222.25C109.299 222.25 95.3218 237.972 90.0785 246.589C84.1963 256.255 90.6467 265.88 99.2206 265.749Z" fill="#BC1E24"/>
</g>
</g>
<defs>
<filter id="filter0_d_18_669" x="0" y="0" width="219" height="304" filterUnits="userSpaceOnUse" color-interpolation-filters="sRGB">
<feFlood flood-opacity="0" result="BackgroundImageFix"/>
<feColorMatrix in="SourceAlpha" type="matrix" values="0 0 0 0 0 0 0 0 0 0 0 0 0 0 0 0 0 0 127 0" result="hardAlpha"/>
<feOffset dy="4"/>
<feGaussianBlur stdDeviation="4"/>
<feComposite in2="hardAlpha" operator="out"/>
<feColorMatrix type="matrix" values="0 0 0 0 0.614771 0 0 0 0 0.70094 0 0 0 0 0.806257 0 0 0 1 0"/>
<feBlend mode="normal" in2="BackgroundImageFix" result="effect1_dropShadow_18_669"/>
<feBlend mode="normal" in="SourceGraphic" in2="effect1_dropShadow_18_669" result="shape"/>
</filter>
<clipPath id="clip0_18_669">
<rect x="8" y="4" width="203" height="288" rx="10" fill="white"/>
</clipPath>
</defs>
</svg>

<svg xmlns="http://www.w3.org/2000/svg" width="219" height="304" fill="none" viewBox="0 0 219 304"><g filter="url(#a)"><g clip-path="url(#b)"><rect width="203" height="288" x="8" y="4" fill="#fff" rx="10"/><path fill="#bc1e24" d="M16.311 38.395c0-.901.62-1.542 1.502-1.542.7 0 1.14.36 1.661 1.381 1.041 2.142 3.123 3.344 5.846 3.344 3.583 0 5.866-1.962 5.866-5.025s-2.343-5.125-5.826-5.125h-2.503c-.92 0-1.601-.66-1.601-1.522 0-.88.64-1.501 1.601-1.501h2.363c2.923 0 5.045-1.982 5.045-4.725s-2.062-4.584-5.125-4.584c-2.383 0-4.184 1.18-4.985 3.243-.4 1.1-.901 1.521-1.682 1.521-.92 0-1.521-.66-1.521-1.661 0-3.103 3.343-6.106 8.268-6.106 5.005 0 8.568 2.983 8.568 7.147 0 3.023-2.262 5.906-5.045 6.386v.2c3.384.38 5.966 3.343 5.966 6.787 0 4.684-3.884 7.968-9.45 7.968-5.164 0-8.948-3.123-8.948-6.187M21.735 53c2.717.042 3.772 2.398 4.119 3.51.035.112.258.112.293 0 .347-1.112 1.401-3.468 4.118-3.51 3.558-.054 6.234 3.93 3.794 7.929C31.883 64.494 26.082 71 26 71c-.084 0-5.883-6.506-8.059-10.071-2.44-4 .236-7.983 3.794-7.928M202.689 257.605c0 .901-.621 1.542-1.501 1.542-.701 0-1.142-.36-1.662-1.381-1.041-2.142-3.123-3.344-5.846-3.344-3.583 0-5.866 1.962-5.866 5.025s2.343 5.125 5.826 5.125h2.503c.92 0 1.601.661 1.601 1.522 0 .881-.64 1.501-1.601 1.501h-2.363c-2.923 0-5.045 1.982-5.045 4.725s2.062 4.584 5.125 4.584c2.383 0 4.184-1.181 4.985-3.243.401-1.101.901-1.521 1.682-1.521.921 0 1.521.66 1.521 1.661 0 3.103-3.343 6.106-8.268 6.106-5.005 0-8.568-2.983-8.568-7.147 0-3.023 2.262-5.906 5.045-6.386v-.2c-3.383-.381-5.966-3.343-5.966-6.787 0-4.684 3.884-7.968 9.449-7.968 5.165 0 8.949 3.123 8.949 6.186M197.265 242.999c-2.717-.041-3.772-2.397-4.119-3.508-.035-.113-.258-.113-.293 0-.347 1.111-1.401 3.467-4.118 3.508-3.558.055-6.234-3.928-3.794-7.928C187.117 231.506 192.918 225 193 225c.083 0 5.883 6.506 8.059 10.071 2.44 4-.236 7.983-3.794 7.928M99.22 30.251c6.549.1 9.092 5.795 9.928 8.48.084.272.622.271.707 0 .835-2.685 3.376-8.38 9.924-8.48 8.574-.131 15.025 9.494 9.143 19.16-5.243 8.616-19.224 24.339-19.422 24.339-.201 0-14.178-15.722-19.421-24.339-5.883-9.666.568-19.291 9.142-19.16M99.22 126.251c6.549.101 9.092 5.795 9.928 8.48.084.272.622.272.707 0 .835-2.685 3.376-8.379 9.924-8.48 8.574-.131 15.025 9.494 9.143 19.16-5.243 8.616-19.224 24.339-19.422 24.339-.201 0-14.178-15.722-19.421-24.339-5.883-9.666.568-19.291 9.142-19.16M99.22 265.749c6.549-.101 9.092-5.795 9.928-8.48.084-.272.622-.272.707 0 .835 2.685 3.376 8.379 9.924 8.48 8.574.131 15.025-9.494 9.143-19.16-5.243-8.616-19.224-24.339-19.422-24.339-.201 0-14.178 15.722-19.421 24.339-5.883 9.666.568 19.291 9.142 19.16"/></g></g><defs><clipPath id="b"><rect width="203" height="288" x="8" y="4" fill="#fff" rx="10"/></clipPath><filter id="a" width="219" height="304" x="0" y="0" color-interpolation-filters="sRGB" filterUnits="userSpaceOnUse"><feFlood flood-opacity="0" result="BackgroundImageFix"/><feColorMatrix in="SourceAlpha" result="hardAlpha" values="0 0 0 0 0 0 0 0 0 0 0 0 0 0 0 0 0 0 127 0"/><feOffset dy="4"/><feGaussianBlur stdDeviation="4"/><feComposite in2="hardAlpha" operator="out"/><feColorMatrix values="0 0 0 0 0.614771 0 0 0 0 0.70094 0 0 0 0 0.806257 0 0 0 1 0"/><feBlend in2="BackgroundImageFix" result="effect1_dropShadow_18_669"/><feBlend in="SourceGraphic" in2="effect1_dropShadow_18_669" result="shape"/></filter></defs></svg>
